-----BEGIN PGP PUBLIC KEY BLOCK-----

mQSuBE2U48wRDACnqNv9pQD9PU4s/PjUIhThVhQrJ5xquomyYuSJAFvtTDwvyMUb
kjX4d0PU1z3Yfn+CmNOFlkSSeGmk8JwIKLCZKyIOdBEnVtvHH/N+7jmFWvsY5qSj
+D3hT8H1Ui8FMKjGuLT88cxBvANNf8B134C4i8c9U2fWq9yMVCXjYD3EVwANm4ho
mcuXDlwW0+droPB1ZR/BZJ2QXAXD7JZvBYjw8yI9+yy3qVmIMl9KWypj6RJIPAtT
v+TF5NHuQm5KPAc8eNlcyzg3gL2Rk9Ie96NP8o2woPEQcLjO5PkJVX1/QTR2Jsg+
BUXtGyPWFYlK1ee1UvYK/K5bQDk6D/CicV8881K2QmTcf+6dq1H1Hw45MfIydzRU
rsvlwqwb8nPQvGy+MhPk761MvBaPrbeBZth+Qo1tPiKj82YEBA/BXg5S8khQttDK
RYoFCN7lST35HhEvHHbU1LGXQmT4GdejgpTX5InnRmy/3D9akpA+Sb7gPs6EdSe7
k3tZkMzfM9hfxfMBAPauS+rjVBJ64JZ6EVL3wTKddM3hn5AgYvG9up6+s635C/9a
iL/1vtd7eLIPSCOQ3GSnR6aYT7eUh2y4MrSJqpEBXUKaGDSRyna60RrF839NygDM
E9EMlNb5y+waZaACHmNyk2nOYuRLvWGX8YozKBGemT/7CppnlrGJd5ry5YO/mLET
o4Js/AMyNUsxbXmWAZumnYDW5BzSap8UVqpODDEGalGYKuKGFQ7zx9yEdatQ6fJE
avz8ifw7sjnimmxXJhl7/5NWbgzgDURbu8Wtw/S6BOd9s0shGry/5XWpqLQ+1JJg
PPhboO32qIkl3gquV7Qt2CXMh0LGrukqE+2AbmVLaxJSvpRrPulunHLT0CtXEtyw
iqZ7pxP6ZjGcGPtt0N82s0s+dAa9kiajs0auzzEzkjaNRdQtmAaWPqcM1lfCflLK
aYEx+IjhMIq6qm0V5P2K+2fJ+IY4VQ5Or0F7bjvyYFUNjTpFd35yaDB4amhHeXqP
FRExpmTSauoC/yAJvTX447wYCzJivlHx5Kl+Hd42sGInTrHu07R0JQ/kT+/jzN4L
/05SRr+kvtTNcXZyzod1FX7eeCv8tpfnj9zgAV4LxlDUvWNow4Spufy0KwaeqnpW
GwONAVwI21zQ9m6La6fEuHB/g6ywJAhXODqoHKP0um7xZYbSh55/jCl4NBKt4ZoQ
6LCq5nUXJG+xPsCiTcakS3YNuh13FMqDz4HpVuc8E1sD+D9SH2MF6NsWTYNXOT0q
7Ob2yEgs2mY/djpWWadGc0w/gS6HzNU31VrSupDZgxrBUidyfGp+Uw4eEkTx3v9T
efEGLLOZsefRgEOgtZlwzRcIqYOmZCqp+WobbnW3OWIXGbLed5BfoQkb9jKhENzA
xJ7y3cRpZA4Ln0iK8aIhnMuOnk9oEQ+j9yxbvzO3qS0e+nP2FhxOuwzateiOpyhn
eiwy4aCjFszHRktUtob66lUJpFhf8JUm9xuHWDRoN1XoS18P+g4J/VJm3BE/yLG1
FD47beqHScPaZxTuFyQP8Ir6ZsQjLRcPeTQf5KyAaHHLXGlaHYdAIu3+Bjp7CR7N
XbQrT2xlZyBPc2hteWFuIChDaG9ydG9zLTIpIDxjaG9ydG9zQGluYm94Lmx2PoiW
BBMRCgA+AhsDAh4BAheABQsJCAcDBRUKCQgLBRYCAwEAFiEEVFjDEAZx8lKw9Mdw
gHnRjCGqqv8FAmJ649IFCR5MAYYACgkQgHnRjCGqqv+l0gD/UrjyLOkpvFXvYUOU
3L2eO94UWQYQiYIDdtLoThpljQoA/RdYZ+jhy16VFv30uItxS6BW7xA/u3za9E4S
u0lE/173uQMNBE2U48wQDACc7up+Y9I6m3FhSJHx3jBWlMm1OUzAe628rUo0yFG/
KmSvyDHrkdykxh+qBPVtKzLUbUOh2Sp4fPHtKXAYiwF2PyGblulLKDhN9UK5hbr/
lKlEQsRwSDUTI6bGHnusD1q7gKuPCHRiWKwXL3MegDYLvkhw3SF8AsV2dp7004ip
dSJ4moYl6uOJwI+wtBnFVgSHBD1yk76XpmtSutj3YXX1xssNy4/fjo/bgXeIE3sM
CijEi4ObYjEFBbExkhBGiu00kVqGVwHVMa4AMgVDSgqlSdVXVFtK4Fj1DHJJXUsf
MLJRXbcWe2yAqPJbagHa94Ah/M+U1cAWydIcIli/LlTb/4f4gBYuobvCQLuBhtmk
lAkbAmWwZZRv4sOOUzYydwXyE4wXze2tBWY3nx9TPQK0b+kw9RxQcAq35maL51dB
HoOwGI6gIYuJTP6rCO7DHgcSdf+9lYwPTweOEgNeUSAkH1RP18oqw0YtS1hAl5QH
IbZUoiWW2VNxJehoZq/JaK8ABA0L/0uoHtFvjFOvl31dSqe1oe3ZEh5Rzsk/vcY0
AZFbcoA7kVRDzR5nnEr0oWYAET/YNN333XN41htPOHmIPhpWglLj3n9gJCsV43Hb
O7VacP8L0oN9b+sY8cuwVzvtuWdowq/ZwouKKe/2HMhzYFtEy7eCnOZzxeHHBcCA
Msyy3QpSv8pcCp5L7j4seo5d0qmZrqC1ivhFhsfNbNwIPHFPdiO6Ex2ttiO8E+8U
OtUMRG8I/EfGyhYH+PN2cHa9VGIss//OJWTpCfnAyD3g4qVRcYAnbtK2jVVe9wJS
6zDhMMUJ9QHjMLRFi06f/MHxuES34UhFTmRx1oWv+OUlYCBFWTblI8OXSbgTjsJy
i1zbNywyGrGjUVv0GrrWq7L0b/bukqBObhyeWpl2kED2+/llZb4rn93GB4VSqvkr
jkGWoF8NU7ZhwpVEB3M0j3Z8GsctvQ6NIpFqGf3uNQsk1qngUnMqNZE3zHCnt8Do
dUi2f9uJDlzXNQ5LAgj2pVnqreUwqIhhBBgRCAAJBQJNlOPMAhsMAAoJEIB50Ywh
qqr/vUIBAKE3Ts6L7uXKwsyG8KQcOtiJAqHvcoiJKw3zcbp/eblsAP4z+srwPPOA
vfPv1hSJeCT7caZYzmJW7cmm9MyoYWmcH5kCDQRieuxeARAApVcQ3TKF91ovdRzo
tPuItyvrZCEiJC+eisjIS5A23iw/cPQTgd0ijByMzT2ear/3kDV4km0IoU3baqCE
qYhSYqfv/VyI3abXQR4KHw0ps13siFN3DMdz9Theo5m2KlFr0PdSMusZMS28Yw2D
QSBqW7JGzh3gCor4Nlg+MPf+QIOY+KyCsavORMSgOMM7/w+EN/+8aUqMtDecFrJ8
V22bjHnaXYX/9IU9BiPMYhyUqDh/V5pgTwIU8bWdWSwiegweZnmfxmNtUglAX+2U
LX9Ucc0K+5iCUlosbCLJhkJu1YLf6/vUmNG6i5WVlpfDtcPYdi4WFLUDSiwphEUV
TE3lU5J5vilNLf96r0gWDUsEtdauy9XpyiXwV5ZuxzSM4ejYcECuhMQaJdaEqPtC
XI0a8y11kG7Cb2U6IlqFnlqQyVk6Cj+JDPJtqN/d7hTriN8tgLehkaSoVzHxce6M
pGgGWA6lohoqsDhpUxSjdbeIU8H2nBb54rcjCyKq4Y1nJ51IVduuYi2MRPsBF8Lc
Tw+rezzA1W7Z4aa8CS7B9Kze3YdX3hszVGUN/12wHaM2SGOyN88rZ5drmVSc1+bu
iAZbus+gDICC6bIvHGp7XuAT3YsyWqb0Jp8cXV74WVoSVeYYEaGljsRojSEQX7uW
niiR8EYzmGyHvWPBOUrkWyssHtcAEQEAAbQfUmlkbGV5IENvbWJzIDxyY29tYnNA
cmNvbWJzLm1lPokCTgQTAQoAOBYhBODV6VqUTPOq+Pwc++Z0yUIHd2frBQJieuxe
AhsDBQsJCAcDBRUKCQgLBRYCAwEAAh4BAheAAAoJEOZ0yUIHd2frHEYP/1/u87Kp
RioDpFsS5gXCo5iZMN6B9Unx+2DhPlEkazBU69oqFmkeSeCSJ7d+tCoaS5MAPsWY
23nvLHDzQf9qVXjpB8r585iZuWknP4RmKZuz2pO/5UYxVGtV/uFXybE4+y+RMR8B
8jHdmkzEDdcIiO4hVG7CHn7C2Wy7CkqHN0f6ynORGKuD1wfm3S/ODPaohbjP+yEF
tY63+TVU4fjBZzIOiCCK9bU7bPBZAWZKrx1TdD1bpH5Bj1dQjnR5YrjKkjL222f9
Oxeix+kFwvk337Ta/7tuIk0fR8QqwIoOoHAU1P78eFsy2rIsvbzJBpa54AS0P50t
IZU+EPIcIUxSxxfhXEEfZySylFq1ISQ60RFhnulqFdgGGLswizuAdaBgi6T4LiWe
yQrDWd7LPACrbIbw6D6CuuVGtR2eH8ihFZEw5Lk2tnp++zX+ytcnRsIVyEvAR1Jo
0wOdsdj1fSNQARD+1jV7cuFoXoYcwMft56cPF5YL/EU62f8CVsu8bbwCPuzDAFD1
oAFxedFDFLFeKOT+uCT0ucBwnzhNaarYK+F4iZb06S27+sqrLW7nZgOhmyteZ36a
YAa8YozgocYrysRVh65w6Vs9Rez3YZzIJ6DUeFWwAdGbpP9gkHUS5UHsjti7t6kj
L4qlfRT3pSd27+0C+ZwLVSrRaFVDwthULggUuQINBGJ67F4BEADAic3Q8QQjNQZ7
SfIIabschuqIilj9IjHFOj9ITvuTFf1p51MdmbCme3eINoxTpwdjzmuWyktHYg18
OPzl1jVZfLzorzxPDUZnuZvVZX46dwaggfQUmhhoAoEutzsAxiDhcAx/Av77n7Ph
2r382VSCks8QaXA0jZBkRkXiPyXThgd+73HHZJdaXHAkyqPzEvMSZ4HXEGcUZdGq
5XcTYqMmKyHvPWn9I+Vc7+owpzqYTDGVI9aoNdhaXphv92hy2z8BXb0Yxvz7tvKj
kSK6f7b6La/phi4YVWxcKm45EoG7hTPwjJUHGgLnTANQ7oK6Cv9zMDhhrdnA7290
7z/rgvSKCthf81YYRT6zvPA/5pJ5vyYfW7BLk24Qv7TI61HrnJPNBa+NI1PmonAo
0bvDCm7K/UYpSHxjUraxGaYVDTg4StoNVaZhJ5jbHNr0GdwhEVIWKaosaJlkTSi9
VAWVX64f6BfNN/XBYNv7X6axPA/ge0YREpy9EXbqQyoPEUgTgF9r9NF2f3wwPHAF
rMUOvjNEpncVAdPJ6j97055V0dhynW/WNjXDLVygpI/SLZEr60fVzBSXsUoF/3MZ
Qbr2bsJ/ZdtfgN5hTpkq31Mndz/CsFRVZKgNbUHLlUOQ1J+VG3FPcLgomz+aerij
fGKbrxZVUKMtyCFX4YND33lO1LvnEwARAQABiQI2BBgBCgAgFiEE4NXpWpRM86r4
/Bz75nTJQgd3Z+sFAmJ67F4CGwwACgkQ5nTJQgd3Z+vUqA//dZ7Tg8Hb4mPhXc4h
fe2uxXiwMnJu4m9nX/ehbe+qGQiujaDnrb+aYCKGwton8e/C7AtsC6EiE7V0Cy2D
VVQxd4BN9qbon0WJWqzASD88l0lmRbGGaxIBKMcBNxgUDQmE1qUgmiO+a+xw6jIR
kIQ+1IAoHJGzZfUqXpM3lzixT9ePSKMUVKtrQeQZeZp4pHnYDXvIEUv/vouPeuYI
Dremr7PL/C/48/ATcKHZ0O2GfeMtRXLrgG+w9dIecuYCaNqTXBBcDzkzvdx4OY63
452AytotO2SuUjOXbG9xz1bZsZ3XMDObt5MJbtGmHRZcwXXQODdjoRKjH4OQN8b2
+0aO6Tz7RK4Oue9SOvSLfjNVHKOrg4khGsaZAXo4Yv96CJepXcZ+wEQenNsJTBlk
VLwRtSUeljL3PRvpXMfXzopcItDcoteMzTAzlPcjh4+tv8/t+eq/r7zHH9iEe5dN
K+D/UZjpnf2mXcqkYkI0ovMZ9pCTxStib7nAUZQ6fPeUu+upKYPAKJLDqti9rbA8
4ZF6TW5N7BYmEul8fQ55B0bKJS4vOuk/9UIrS51QVjcDbENpcpI1LNqnUS+Mf5Dz
JirS5lGlxDqtFmJ4zl1rCyMMM0QNQRFvMfJ/ORb5ZSNSridb/+IgzbVzpxaD3u57
ATiazUzSV9pYXmR0FQpqW7bPRX6ZAg0EYTTqMAEQANzKqbKMC3+Nkuql3odca1Bz
U0TG9b95xD9vbhlsfUoyQQdkysNFO/p00kMCJ1NMx02ogJm4Bt79rBurMGyNvIgT
5G/YaRdd87Bc5a2/GUq6ikRskNyfzucPP5HCJ/jmHkAhPFKeZ8JMFmJ5dIshCbqE
2cirIZtB2g2s8bhr5YrEGvBV50/Vf+g/fRyUBM1bwuUoIb4fIkTlt/id7IHglYxr
BWLaDP8Sp3ilFfYOjA9bRC5Vk4z2ss5m280Myhl5Nu4TdbvPCNpWNt6IUOldfo8u
Y2aCX8kJ1BaiMf4Rj7h4Pn63YWBag+yFZgGhhUbiicqht0XtVGE70y0pXpCV7i5X
23hN4U6nnN/yiwtRGgeYQf65xghlT95rmP5ybt6BfoS4XjejhAR+VmOz9EyhiDRB
kjhCZFv5r7FZzyTgjM5A1rxqZC7ZlWao6Gt42laENeyQjAISkJadN/MAuP6YRA7X
uNOxDA/lFFb4mp7Om2qkpeyfaZEvZ9Yj6hfwTHP8e5VuVXkhYVWRA6tOE7liM5JH
amRERbeDDu9XSRuM39OWnRWXpc/oSixq/Zxy/rxtq2E4+NY9QRDEujL0Rw6FsB80
Rud0orpRgy1alr5+vGCbpf+WgchA/nX7uiJdHMRVt6BPgtXu7ZnQxloK/NZSbWLn
bfEO1pRdf7Oyt7jczrJLABEBAAG0GU9uZXJpYyA8b25lcmljQG9uZXJpYy5kZT6J
AlQEEwEIAD4WIQRe5j8qcb8TLP41Z+Hf/mFfKCTHIAUCYTTqMAIbAwUJDShogAUL
CQgHAgYVCgkICwIEFgIDAQIeAQIXgAAKCRDf/mFfKCTHIDzAD/0TBlCo8TCHosn9
Ly57xqU0nVTF/Y3ZvAOzJjnseOFPwAdFH6UBKGKS1+fRD78bDAYUCzEJgMyCxdRh
kZ3HyzXrUW8Wiq12zUqZQthTBW1Zw53l/Zc417MPDF8U/CtD/A/TQ4KFGwDJ+qNT
F8snvU47YAijhKl8UlAFNM/LIfa7hLdBinr34VOTpRMcWkUcehNUkrBR6U6NqssU
Y/LhfrxbiqaQZR7oT/LG1kYgDYIlHQBxm8i20yYY/al+gSE7eQvbz6hMaLiVH1LZ
0LNwuj9cH2CqGxDyqHWOdngXphNcOIQwGYrzfuQBFLAKWmHMcM5LOA6/QLwXyw0i
hlhvsj6G0vy1qqAwDp4xs5hJI1ZD8CBJQRIYrQ2XYd1qWBWFPOPABKVRvpvLYnN7
6eQZXgcYx9lgw1U7B7Dmi95aCd2AJbhVh7gKfyCjTDubZ1OMfBWwr9YaHh+bP5vN
Gk4RnBsCTsDfWBnVCBvSrarn4IVX4gb6Z9qt17o6SpjedhKKWrkMN7FHWtKQ9kOw
Z1x99IIIoTj1bkxeuE5CznuJ1y27KyrtD0HxzmTEmy0WDt+v62Q+CkTARUVuBMe8
PYowo44DxPNgb63/0/J+Yo3vtkqm2Jf1jJGXfHuh98Lz/VZWwShOMAyjWFObYwfe
6WN38ogr/fz/pDXFJeBFnAxw6rwUBLkCDQRhNOtdARAAsUJplzogwg/eB/p4VsuH
OHEPXdY/AyVbaHF7YlVFeKbQTNQPR8GZhzKhSpTWeqE35GLoYoKoLUA15mLgBfrN
tIllmENNv4MYry+zW5FH0DMzsi2qGNGfGIxrngxqpMERVdn0g9ljunrTZ5qYQ6ST
tcif+5Dv3imGzS0HpHS/fH3x8aNAIo5RvyjAzPyDd+9sVqEPG6jKLonagg/U1Khn
YmKoEy3NWqtyehzf0kcwtgipBLtb1OqJhzZzIQS+/gGlwfrd8O1jiZZpEG4ege3d
slhJpGoRi+wM12dhHlyBbS4kAfZjdhZNMq5mUt+yEMCzv2EhQqWL2Ksvpk4sSkbi
+WX3wDcfsW8rB3c3M1SC8jPkgLAB+kEHN+J3RwToKYbuTEHbYokaxBv/Cq251vxX
GUd7Zt/i3xLSXEiyadr7AFVTWJUuW7uDhrLtHBQ7vEwJvv+bDA6W+l7fBNus+NEF
rbR2SPUqaFIn1MKX5YXS85XstWvvpbAifWhbbm+kaRxmak7TMV1zFpZVSwGgNsDO
zjW7U7QV7MP/qTZMXIv2LcMwhTFc1POgfwjrKSj7nFKgwSXolBmCieP9k4vJqnQb
eR/ylNcHt3yBQilQY/l0mQarjyU3ACclaoY1laMs6dhUBvW2I9wGdVyFinGGVIeE
Hvbe+YOXLCYG5iiHHHbAKuMAEQEAAYkCPAQYAQgAJhYhBF7mPypxvxMs/jVn4d/+
YV8oJMcgBQJhNOtdAhsgBQkJZgGAAAoJEN/+YV8oJMcgZRgP/2tFYfouQiLXHodG
DZ7e1QHSP1j3xpPzNLJgvo9tfpMRSkPPVsnJ26bmFMkw9bxo08u75osE0Hq+bV0+
+h3KmDRkIGNSGafTmRs7bh3LXYDXF4cMVYykFW6tPMqO0+SDomDG8Fv4QdYXuKHN
ZvjAAAonRFGGH/aTG4RSxn/UuNP5FBYPvoadugLd5Sc38HF99Sny96qntmOpbIAQ
guE6LASm0s9qgCpcI4EXIKjvME9mDg3F8eyk6L7owbgO8kIAuz0EO+K1tl/rXeuK
Kmj72fW2vEZxu/gzWupEL98fiz2Hd+lQsiUlktyIIU3NXJvK6sJ3RDGv8UxWTV4K
yuby35Umk8mBT6BV1sHdkPjmcK3alAObN1MkKdA861XtANU+UVkJFfRfPMMWX5Nh
NXQFrt3oMCF2kBgUdOpMifk0KJXUNRX1Q/5Wevc1pZGiV/PLP1Tqm8hSEpUKdEK+
zKYNdYbT+fhBvYl68s1OmhWkb05wvM+cXZbMiuNH8k+9rvgRBpLfwg4lG9L7AgwE
8Oh5ANWxcr5Hl5m9sbIEehKRo6/tFMvKKDFFA6HvBj9jtnqc5ZQI8iEWWzrMcSYQ
JMJ5/58zXcnDtX8fisfwxLmElPDLSCA2N5TxEsAiOZGEXJN7rlwbjldcVD9YbO8R
zURA6l0UpUqQE6+6oWiPvsvDpGdtuQINBGE06sABEADcZCBCxKKF7yMkqQjZrZiH
OknhUoUOV6rc7CYBji+30MZ9s2ml522OhH5eCsplM1a6Ya04OJBUDJzFaAj6zhgM
nkJLXv4VIvJvCGbPYDsRm1eRpx7xyXN2LWWSv6gJ2Hl0yRUp5UjSsrjDYm4Om326
MbhvqDzKktWB8XDgftzMd8tOkblJl5eLVHtMp/3SPoyRw+NGrf3+m029aYovxgcG
IDdWZ1n62k5MQ+G4IxYs5SUSPKoYY//h2SrTtOE6eXiBatPnjh8klq1U5UOg/rAb
zWXCO2gksXDFkEJ1DfkZvdXMBWqfWum8qlHODMuf1cqPdcoMF5EwhV74BKWUL4ii
zahcDTrIKFQdoOgSyH6e2l1DwQGVLQx/r7Bb4ksJlSB4pCmrvd2bryLnvkyMxhx7
/wcimq5l9xN46BpEDzWFhDvq2mZJ/hkfufHdlhfti2n+gCTCcG3rUDNThqgM56VP
JCDrdiaiBZtPRyCTx/hI2FjJYcz4ZCTCw/3Tv+HpO5BBTEdjemyG/dd6gYCtJZH9
hgNwOtrd0LokFZH4ObkMTppGO6oRR1l3959rh4es33dBCSiGCCCrXn+7TDj+g+aN
/jfy//xPegaFk4dX+xRRiEGHRC4OhwuMW3DJ6LnS4zS0eysUvC9p9bo1k1+2m5w0
gbss3AUmOe3e+LJIz8mwOQARAQABiQRyBBgBCAAmFiEEXuY/KnG/Eyz+NWfh3/5h
XygkxyAFAmE06sACGw4FCQlmAYACQAkQ3/5hXygkxyDBdCAEGQEIAB0WIQTdr8Ge
RrKtLWsm+EOXoI4M/9cJUQUCYTTqwAAKCRCXoI4M/9cJUVeWD/9QTYnLtPZfL+tk
Wm9KJBC2tmKVOz0pcoJLfKVkuMCKTxJNTXg4f4QlLegBS6WEq3LWSHUM7Ihyki96
h62DKiW+ZJsI/xi0f65Cxz6weMAZpi2oht+VuyLPb8JWi+QcMxaMCg62zSkn985j
1fxhPTcmsT6Ead8tV5zjjT8bC0kvEQwjMcrDtw2nwlxwbSBl+lDmIdHVluUxm9qg
ihXFRCKGkHIxj8V8pTIk4P3uMfIykxsqXPkmkP6zwGWss1xsHYsbbu7GakaPe2kG
/+Owxf2NUC+qXBR7MK8h4gJMb2UaQ7Uh4P3LfSf61XsA6hlN/vs/39wydiHb2opo
SyO0+JXS6msYlMoGict0a5WU8aD0kX1VupP5dStQbhzNoqa1B0lhulkfTzh5du3l
MUFVi3QpUj1So8L+1DjTqHkg/6eB3HMWbLmJ1xgtnNID7UbOJjZSRoaTkgNDKtwX
Mr1r4KtcgaB00USVGV5cKo95cNVfdPWRLsakhP8ECGZu41R1+RzbDu1SmDTVWU0s
Q6pWUYNOidf95BtxIRadbF37ejWfFYWf8pYjlPjZeUQWPcwVqMUJfs2IwGiuQd16
XK6Bngyi+NI8lQCCacYOey1Ijl2qL3aL3LXJH339T8PfR9zgUtDalXmJEgq0MhgT
ewhAycZP3CCYBgHLkMGZ5B5p9wknrMOqD/91Ops06x/RbiUnsLoYfpKpIDBp+TE/
N5v2IKcDuQoR4lXoRuMxm4IKf6stz8KM5mvm5quVlcP1XrKlAOVsJxtvLuz8Psy1
khDewRC+wjxoEoNLxlnnnomN8anX+iBgn9dMvStxn22sI3dB2K3+P8PIVjR3A1hv
b27Qx9z4jCNnQlVbATboR2GBChPo6LvV0VoPCNKb3ta8P9l2xYVHkQuf7oFAvSww
y08r/JQCXngdI0o3F/n4Z/LEG7yuykv64NbbwoW0TK9y8Lc8VUeBOPYX19Y1X1Kp
gnruNusMQgWGskjcAies0e9PmKwO1CvbUW9qSXb2EIfmz1UQczQYkwpEa0S79eqH
LES/HL6MKAnESyGitsbwEKzUKaqhjASL+M5vMRVqV0iZ/m7oBaMcgScwVTZy5z/B
edqVgRiAcsw6sRPLvjWCjYosAfNh07J0FzkClIfF6yPJDW/58udVbqLC7/Gswrf+
W3tmdle0gXp9V8NsweDRLq1j96McegU9085C+hPXvp6p/truU4IRc4yYZIcOa7hv
vtwLSq8Y4H5SVcLnQOKkZ0Yn60rvH5jaNYsdqKnfKnoQi3iWB/U6bY9Ia4F46WQG
XOSraaMLxmMhGr+u2ZrNIIE3KpQVoOWOsb0K9MeajqG6lQn/hbrMtF7kIInnjx1j
2GoOd6Yu7IJ5nA==
=M4SH
-----END PGP PUBLIC KEY BLOCK-----
